X:141
T:AIR XVII. Maggy Lawder.
O:england
B:Joseph Mitchell: "The Highland Fair" (1731)
N:third "c" in bar 4 might be a "d"
M:C
L:1/8
K:A
B|A>BA>A A>BA>A|B>cB>A G>AB>B|c>AA>A A>BA>A |c>de>d c>ce>e|
f>ed>c d>cB>c|d>cB>A G>AB>B|A>GF>E D>CB,>d|c>dB>c A2 A2|]


